X:1
T:[ID 1-141a]
T:[ID 1-141a]
T:Bezeichnung standardisiert: Menuett Menuet In dieser Quelle auch als: Menuetto
T:Urheber unbekannt Erstbeleg: vor 1767 (Datum in der schriftlichen Quelle) Datum in der hier transkribierten schriftlichen Quelle: 1776 - 1791
C:Urheber unbekannt
C:Erstbeleg: vor 1767 (Datum in der schriftlichen Quelle)
C:Datum in der hier transkribierten schriftlichen Quelle: 1776 - 1791
%%score ( 1 2 )
L:1/8
M:3/4
K:D
V:1 treble 
V:2 treble 
V:1
 D2 D2 (3DEF | A3 F D2 | E2 F2 G2 | A3 F D2 | E2 F2 G2 | A2 a^gae | afedcB | A6 :: a2 a2 a2 | %9
 b2 babg | g4 (3efg | a2 agaf | ABcdef | gecA d2 | (3BAG F2 E2 | D6 :| %16
V:2
 x6 | x6 | x6 | x6 | x6 | x6 | x6 | x6 :: a4 fd | x6 | x6 | x6 | x6 | x6 | x6 | x6 :| %16

